X:1
T:Title
%%score { ( 1 4 ) | ( 2 3 ) }
L:1/8
Q:1/4=81
M:6/8
K:Eb
V:1 treble nm="Grand Piano"
V:4 treble 
V:2 bass 
V:3 bass 
V:1
 [GB][GB][GB] [Ge]2 [Gd] | .[_Gd]3 [B,=GB]3 | GGG B2 A | G3 z3 | [B,EG][B,FA][B,GB] [_Gc]2 [=GB] | %5
w: Frank~N.~Shepperd * * * *|||||
 d2 c B2 B | z3 .d3 | [DB]6 | [DB][B,EB][B,=EB] [B,FB]2 [B,DA] | [B,EG]2 [B,FA] [C_G=A]2 B | %10
w: |||||
 ccc c2 A | cf[Ae] A-[A-c][AB] | [EGe][EGd][EAc] .[EB]2 [CEA] | [B,EG]2 [A,DF] [G,E]2 [G,_DE] | %14
w: ||||
 .[A,CE]2 [CA] GFE | E2 D E3 | [GB][GB][GB] [Ge]2 [GB] | .[_Gd]3 [B,=GB]3 | GGG B2 A | G3 z3 | %20
w: ||||||
 [B,EG][B,FA][C_G=A] [_D=GB]2 [Ge] | [Ee]-[EAe][EB_d] [Ec]-[EGc]c | Bcd eB[CEA] | %23
w: |||
 [B,DG]2 [A,DF][K:bass] [G,E]2- [G,_DE] | %24
w: |
 .[A,CE]2 [F,CE] [G,B,E][K:treble][B,EG][A,DF][Q:1/4=80][Q:1/4=79][Q:1/4=77][Q:1/4=76][Q:1/4=75][Q:1/4=74][Q:1/4=73][Q:1/4=71][Q:1/4=70][Q:1/4=69][Q:1/4=68][Q:1/4=67][Q:1/4=66][Q:1/4=64][Q:1/4=63][Q:1/4=62] | %25
w: |
 [G,E]6 |] %26
w: |
V:2
 [E,B,][E,B,][E,B,] [E,B,]2 [E,B,] | z2[K:treble] c[K:bass] E,3 | %2
 [E,B,E][E,B,D][=E,B,_D] [F,A,C]2 [F,C] | z3 .F3 | E,E,E, [E,=A,]2 [E,B,] | %5
 [F,B,F]2 [_G,A,E] [=G,B,D]2 [_G,CE] | [F,D]2 [F,B,D] FG,[F,A,E] | [B,,B,]6 | %8
 [B,,B,]C,_D, =D,2 B,, | E,2 E, z2[K:treble] [B,G] | [A,E][A,E][G,B,=E] [F,A,F]2 [F,CF] | %11
 FA[K:bass][F,C] z ED | C,B,,A,, z DA,, | B,,2 =B,, C,2 _B,, | %14
 z[K:treble] B[K:bass][A,,E,] [B,,B,]-[B,,A,B,][B,,G,B,] | [B,,F,B,]2 [B,,A,B,] [E,G,B,]3 | %16
 [E,B,][E,B,][E,B,] [E,B,]2 [E,B,] | z2[K:treble] c[K:bass] E,3 | %18
 [E,B,E][E,B,D][=E,B,_D] [F,A,C]2 [F,C] | z3 .F3 | E,E,E, E,2 [E,B,] | %21
 E,F,G, A,2[K:treble] [=A,E_G] | [B,EG]2 [A,B,F][K:bass] [G,B,E]2 F, | B,,2 =B,, C,2 _B,, | %24
 z E,A,, B,,B,,B,, | E,6 |] %26
V:3
 x6 | [E,=A,]3[K:treble][K:bass] z3 | x6 | B,,6 | x6 | x6 | z3 .F,3 | x6 | x6 | z3 E,3[K:treble] | %10
 x6 | .[F,A,]3[K:bass] B,,3 | z3 .G,,3 | x6 | .A,,3[K:treble][K:bass] .E,3 | x6 | x6 | %17
 [E,=A,]3[K:treble][K:bass] z3 | x6 | B,,6 | x6 | x5[K:treble] x | x3[K:bass] x3 | x6 | .A,,3 z3 | %25
 x6 |] %26
V:4
 x6 | x6 | x6 | [B,D]6 | x6 | x6 | BFB z =Ec | x6 | x6 | x6 | x6 | z3 .[Fd]3 | x6 | x6 | x6 | x6 | %16
 x6 | x6 | x6 | [B,D]6 | x6 | .G3 .A3 | x6 | z3[K:bass] .C3 | x4[K:treble] x2 | x6 |] %26

